X: 1
T:N°84
N:page 103
S:Manuscrit Wandembrile (1778), Archives de l'Etat à Namur
K:Gmaj
Z:ABC transcription Olivier VIENNE troubadourwallon@gmail.com
M:C|
L:1/8
B2 GG G2 (3ABc|B2 GG G2 (3ABc|BBAG AAGF|GGDD B,2 (3FGA|G2 GG G2 FE|
D2 DD D2 (3FGA|(3GFE (3BAG (3edc (3BAG|[DF]2 [DF][DF] [DF]4:|
|:F2 FF FGEF|(3GFE(3BAG (3edc (3BAG|[DF]2 [DF][DF] [DF]4|d2 dd dBcd|
e3 d/2c/2 B2 A2|(3GAB (3cBA G2 F2|[B,G]2 [B,G][B,G] [B,G]4:|]





